material/.icons/material/truck.svg

<svg xmlns="http://www.w3.org/2000/svg" viewBox="0 0 24 24"><path d="M18 18.5a1.5 1.5 0 01-1.5-1.5 1.5 1.5 0 011.5-1.5 1.5 1.5 0 011.5 1.5 1.5 1.5 0 01-1.5 1.5m1.5-9l1.96 2.5H17V9.5m-11 9A1.5 1.5 0 014.5 17 1.5 1.5 0 016 15.5 1.5 1.5 0 017.5 17 1.5 1.5 0 016 18.5M20 8h-3V4H3c-1.11 0-2 .89-2 2v11h2a3 3 0 003 3 3 3 0 003-3h6a3 3 0 003 3 3 3 0 003-3h2v-5l-3-4z"/></svg>

<?xml version="1.0" encoding="UTF-8"?><!DOCTYPE svg PUBLIC "-//W3C//DTD SVG 1.1//EN" "http://www.w3.org/Graphics/SVG/1.1/DTD/svg11.dtd"><svg xmlns="http://www.w3.org/2000/svg" xmlns:xlink="http://www.w3.org/1999/xlink" version="1.1" id="mdi-truck" width="24" height="24" viewBox="0 0 24 24"><path d="M18,18.5A1.5,1.5 0 0,1 16.5,17A1.5,1.5 0 0,1 18,15.5A1.5,1.5 0 0,1 19.5,17A1.5,1.5 0 0,1 18,18.5M19.5,9.5L21.46,12H17V9.5M6,18.5A1.5,1.5 0 0,1 4.5,17A1.5,1.5 0 0,1 6,15.5A1.5,1.5 0 0,1 7.5,17A1.5,1.5 0 0,1 6,18.5M20,8H17V4H3C1.89,4 1,4.89 1,6V17H3A3,3 0 0,0 6,20A3,3 0 0,0 9,17H15A3,3 0 0,0 18,20A3,3 0 0,0 21,17H23V12L20,8Z" /></svg>
